!!!COM: Ovalle, Rafael Alvarez
!!!CDT: 1860-1948
!!!OTL: National Anthem, Guatemala
!!!ENC: Davis, Matthew J.
!!Vocal Line Only
**kern
*clefG2
*k[b-]
*F:
*M4/4
=1-
=2
1r
=3
1r
=4
1r
=5
1r
=6
1r
=7
1r
=8
1r
=9
1r
=10
1r
=11
1r
=12
1r
==13
!Verse
8c
8c
=14
4g
8c
8c
4a
8cc
8cc
=15
4.cc
8b-
4a
8a
8cc
=16
4bn
8a
8g
4f
8d
8g
=17
4c
4c
8r
8c
8d
8e
=18
4f
8f
8f
4f
8e
8f
=19
4.a
8g
4f
8f
8a
=20
4cc
8dd
8b-
8a
8cc
8b-
8g
=21
2.f
8c
8c
=22
4g
8c
8c
4a
8cc
8cc
=23
4.cc
8b-
4a
8a
8cc
=24
4bn
8a
8g
4f
8d
8g
=25
4c
4c
8r
8c
8d
8e
=26
4f
8f
8f
4f
8e
8f
=27
4.a
8g
4f
8f
8a
=28
4cc
8dd
8b-
8a
8cc
8b-
8g
=29
2.f
==30
!Chorus
8f
8a
=31
4cc
8.a
16f
4g
8g
8a
=32
2f
4c
8f
8f
=33
4dd
8cc
8cc
4b-
8a
8a
=34
2.g
8g
8g
=35
4g
8b
8b
4b
8a
8g
=36
4.a
8b-
4cc
8f
8f
=37
4b-
8b-
8b-
4a
8a
8g
=2.f
==|!
*-
